!!!OTL-incipit: Muede kehrt ein Wanderer zurueck nach der Heimat wendet er sein Blick
!!!ARE: Europa, Mitteleuropa, Deutschland, ???, Walensee, Oberterzen
!!!SCT: D1003
!!!TXL: @@DE
!!!YEM: Copyright 1995, estate of Helmut Schaffrath.
**kern	**text
*ICvox	*
*M4/4	*
*k[f#]	*
*G:	*
!LO:TX:a:t=Langsam.	!
{8d	Müde
8d	.
=1	=1
4.b/	kehrt
8a	ein
8g	Wanderer
8f#	.
8g	.
8a	zurück
=2	=2
4d	.
4r	.
4r}	.
{8f#	nach
8g	der
=3	=3
4.a	Heimat
8g	.
8f#	wendet
8a	.
8ee/	er
8dd/	sein
=4	=4
4b/	Blick
4r	.
4r}	.
{8d	doch
8d	be-
=5	=5
4.b	-vor
8dd/	er
8cc/	geht
8b/	ins
8a	Liebchens
8g	.
=6	=6
4cc/	Haus,
4r	.
8r}	.
{8cc/	Kauft
8cc/	er
8ee/	für
=7	=7
4.dd	sie
8g	noch
4g	einen
4g	.
=8	=8
4b/	Blumenstrauss.
4a	.
4g}	.
==	==
!!!AGN: Liebes - Lied
!! DVA-Signatur A 21 144
!!!ONB: ESAC (Essen Associative Code) Database: DVA
!!!AMT: simple quadruple
!!!AIN: vox
!!!EED: Helmut Schaffrath
!!!EEV: 1.0
!!!YOR: https://freidok.uni-freiburg.de/data/150373
!!!EFL: A 021 001 - 021 700 Schweizer Archiv (p. 97)
!!!ENC: Anna Maria Matuszewska
!!!EEV: 2025/03/31
*-	*-
